X: 12009
T: Eonach Mhic Coilín
R: reel
M: 4/4
K: Edorian
|:BEGE DEGA|BEGE d2BA|BEGE DEGA|BGdB A2GA:|
Beed BAGA|Bdef g2ed|Beed BAGA|BGdB A2GA|
Beed BAGA|Bdef g2fg|afge dGBd|eBdB A2GA||

